!!!OTL: 699c. Absage des Maedchens.
!!!ARE: Europa, Mitteleuropa, Deutschland, Rheinland
!!!SCT: E0699D
!!!TXL: @@DE
!!!YEM: Copyright 1995, estate of Helmut Schaffrath.
**kern	**text
*ICvox	*
*M3/4	*
*k[f#c#]	*
*D:	*
!LO:TX:a:t=Mäßig.	!
!LO:TX:a:t=Vom Rhein 1850-60.	!
{8f#	Meinſt
8g	du
=1	=1
4.a	denn,
8f#	ich
8b/	ſoll
8a	mich
=2	=2
8aL	krän-
8c#J	.
4e}	-ken
{8e	ü-
8f#	-ber
=3	=3
4.g	dei-
8e	-ne
8a	fal-
8g	-ſche
=4	=4
2f#}	Treu?
{8f#	A-
8g	-ber
=5	=5
4.a	nein,
8f#	ich
8b	kann
8a	wohl
=6	=6
4a	den-
4g}	-ken,
{8e	daß
8f#	es
=7	=7
4.g	al-
8e	-ſo
8a	beſ-
8c#	-ſer
=8	=8
2d}	ſei.
==	==
!!!AGN: Liebes - Lied, Leid, Klage
!!!ONB: ESAC (Essen Associative Code) Database: ERK2
!!!AMT: simple triple
!!!AIN: vox
!!!EED: Helmut Schaffrath
!!!EEV: 1.0
!!!GTL: Liebeslieder [Neuere (aus dem 18. bis 19. Jahrh.) - Liebesleid] 678-740
!!!URL-scan: https://rosdok.uni-rostock.de/mcrviewer/recordIdentifier/rosdok_ppn745177662/iview2/phys_0503.iview2?x=112.81201730039379&y=2225.081409342354&scale=0.7029437510502773&rotation=0&layout=singlePageLayout
!!!ENC: Anna Maria Matuszewska
!!!EEV: 2024/12/16
*-	*-
